packages/vibrant-icons/assets/icons/Caption/Fill.svg

<svg width="24" height="24" viewBox="0 0 24 24" fill="none" xmlns="http://www.w3.org/2000/svg">
<path d="M17.7924 21.6004V15.4344H15.1544V13.6499H22.5954V15.4344H19.9579V21.6004H17.7924ZM8.2749 21.3504C8.13683 21.3504 8.0249 21.2385 8.0249 21.1004V19.1999C8.0249 19.0618 8.13683 18.9499 8.2749 18.9499H9.6749V5.05089H4.5499V6.60139C4.5499 6.73946 4.43797 6.85139 4.2999 6.85139H2.3999C2.26183 6.85139 2.1499 6.73946 2.1499 6.60139V2.90039C2.1499 2.76232 2.26183 2.65039 2.3999 2.65039H19.3499C19.488 2.65039 19.5999 2.76232 19.5999 2.90039V6.60139C19.5999 6.73946 19.488 6.85139 19.3499 6.85139H17.4499C17.3118 6.85139 17.1999 6.73946 17.1999 6.60139V5.05089H12.0749V18.9499H13.4749C13.613 18.9499 13.7249 19.0618 13.7249 19.1999V21.1004C13.7249 21.2385 13.613 21.3504 13.4749 21.3504H8.2749Z" fill="#0C0C0C"/>
</svg>

<svg xmlns="http://www.w3.org/2000/svg" width="24" height="24" fill="none"><path fill="#0C0C0C" d="M17.792 21.6v-6.166h-2.638V13.65h7.441v1.784h-2.637V21.6zm-9.517-.25a.25.25 0 0 1-.25-.25v-1.9a.25.25 0 0 1 .25-.25h1.4V5.05H4.55v1.551a.25.25 0 0 1-.25.25H2.4a.25.25 0 0 1-.25-.25v-3.7a.25.25 0 0 1 .25-.25h16.95a.25.25 0 0 1 .25.25v3.7a.25.25 0 0 1-.25.25h-1.9a.25.25 0 0 1-.25-.25v-1.55h-5.125V18.95h1.4a.25.25 0 0 1 .25.25v1.9a.25.25 0 0 1-.25.25z"/></svg>
